X: 3035
T: Minuet
%R: minuet, waltz
B: Henry Playford "Apollo's Banquet", London 1687 (5th Edition)
F: https://archive.org/details/apollosbanquetco01rugg
Z: 2017 John Chambers <jc:trillian.mit.edu>
M: 3/4
L: 1/8
K: Dm
% - - - - - - - - - -
|:\
f2 e2 d2 | a4 b2 | g2 f2 a2 | f3 e d2 |\
f2 e2 d2 | a4 A2 | d2 e2 f2 | ^c6 ::\
e2 a2 e2 | f3 e d2 | cd cB AB |
B3 A G2 |\
c2 B2 A2 | d6 | e2 d2 c2 | f4 d2 |\
g2 f2 e2 | a2 ^c2 d2 | e2 e4 | Hd6 |]
% - - - - - - - - - -

%%sep 1 1 500
%%sep 1 1 500

